src/next/cmd/sc_pagemargin.svg

<svg enable-background="new 0 0 128 128" height="16" viewBox="0 0 16 16" width="16" xmlns="http://www.w3.org/2000/svg" xmlns:xlink="http://www.w3.org/1999/xlink"><radialGradient id="a" cx="102" cy="112.3047" gradientTransform="matrix(.9787234 0 0 .9818182 1.361705 1.163636)" gradientUnits="userSpaceOnUse" r="139.55859"><stop offset="0" stop-color="#ececec"/><stop offset=".2363" stop-color="#fafafa"/><stop offset=".2722" stop-color="#fff"/><stop offset=".5313" stop-color="#fafafa"/><stop offset=".8449" stop-color="#ebecec"/><stop offset="1" stop-color="#e1e2e3"/></radialGradient><radialGradient id="b" cx="102" cy="112.3047" gradientUnits="userSpaceOnUse" r="139.5585"><stop offset="0" stop-color="#ecf2f5"/><stop offset=".2435" stop-color="#fafcfd"/><stop offset=".2722" stop-color="#fff"/></radialGradient><filter id="c"><feGaussianBlur stdDeviation="1.0394514"/></filter><filter id="d"><feGaussianBlur stdDeviation=".50063244"/></filter><g transform="scale(.125)"><path d="m14 6 .021484 58-.021484 58h.042969 63.677734 36.279297v-36.072266-43.855468-36.072266h-36.279297-63.677734z" filter="url(#c)" opacity=".715069" stroke-width="1.038686"/><path d="m14 7 .021484 57.5-.021484 57.5h.042969 63.677734 36.279297v-36.072266-42.855468-36.072266h-36.279297-63.677734z" filter="url(#c)" opacity=".835616" stroke-width="1.038686"/><path d="m24.919999 10.931136v108.137934l58.676001-.0001c.53 0 1.039-.211 1.414-.586l31.484-31.765936c.375-.375.586-.884.586-1.414v-74.371898z" filter="url(#d)" opacity=".89589" transform="matrix(1.0416667 0 0 1.0357143 -9.958333 -3.321534)"/><path d="m16 8v112h61.171875 34.828125v-34.828125-42.34375-34.828125h-34.828125z" fill="url(#b)"/><path d="m24.679688 16c-.539277 0-.980469.44144-.980469.982422l.15039 47.017578-.15039 47.01758c0 .54098.441192.98242.980469.98242h.298828 51.914062 26.128902c.54025 0 .97852-.44144.97852-.98242v-26.230471-41.574218-26.230469c0-.540982-.43827-.982422-.97852-.982422h-26.128902-51.914062z" fill="url(#a)"/><g fill="#2e3436" fill-opacity=".580882" transform="matrix(3.7795275 0 0 3.7795275 .000002 -994.51966)"><path d="m8.4666662 265.25h2.1166668v29.63333h-2.1166668z"/><path d="m23.283333 265.25h2.116667v29.63333h-2.116667z"/><g stroke-width="1.095445"><path d="m4.2333328 269.48331h25.4000002v2.11667h-25.4000002z"/><path d="m4.2333328 288.53333h25.4000002v2.11667h-25.4000002z"/></g></g></g></svg>

<?xml version="1.0" encoding="UTF-8" standalone="no"?>
<svg
   xmlns:dc="http://purl.org/dc/elements/1.1/"
   xmlns:cc="http://creativecommons.org/ns#"
   xmlns:rdf="http://www.w3.org/1999/02/22-rdf-syntax-ns#"
   xmlns:svg="http://www.w3.org/2000/svg"
   xmlns="http://www.w3.org/2000/svg"
   xmlns:xlink="http://www.w3.org/1999/xlink"
   xmlns:sodipodi="http://sodipodi.sourceforge.net/DTD/sodipodi-0.dtd"
   xmlns:inkscape="http://www.inkscape.org/namespaces/inkscape"
   enable-background="new 0 0 128 128"
   height="16"
   viewBox="0 0 16 16"
   width="16"
   version="1.1"
   id="svg2921"
   sodipodi:docname="sc_pagemargin.svg"
   inkscape:version="0.92.4 (unknown)"
   inkscape:export-filename="/home/rizmut/Dokumen/Rizmut/Github/libreoffice-style-karasa-jaga/build/next/cmd/sc_pagemargin.png"
   inkscape:export-xdpi="96"
   inkscape:export-ydpi="96">
  <metadata
     id="metadata2927">
    <rdf:RDF>
      <cc:Work
         rdf:about="">
        <dc:format>image/svg+xml</dc:format>
        <dc:type
           rdf:resource="http://purl.org/dc/dcmitype/StillImage" />
        <dc:title></dc:title>
      </cc:Work>
    </rdf:RDF>
  </metadata>
  <defs
     id="defs2925">
    <radialGradient
       inkscape:collect="always"
       xlink:href="#c"
       id="radialGradient1958"
       gradientUnits="userSpaceOnUse"
       gradientTransform="matrix(0.9787234,0,0,0.9818182,1.361705,1.163636)"
       cx="102"
       cy="112.3047"
       r="139.55859" />
    <radialGradient
       inkscape:collect="always"
       xlink:href="#d"
       id="radialGradient1965"
       gradientUnits="userSpaceOnUse"
       cx="102"
       cy="112.3047"
       r="139.5585" />
  </defs>
  <sodipodi:namedview
     pagecolor="#ffffff"
     bordercolor="#666666"
     borderopacity="1"
     objecttolerance="10"
     gridtolerance="10"
     guidetolerance="10"
     inkscape:pageopacity="0"
     inkscape:pageshadow="2"
     inkscape:window-width="1366"
     inkscape:window-height="714"
     id="namedview2923"
     showgrid="true"
     inkscape:zoom="29.5"
     inkscape:cx="5.4838773"
     inkscape:cy="8.9232687"
     inkscape:window-x="0"
     inkscape:window-y="28"
     inkscape:window-maximized="1"
     inkscape:current-layer="g32">
    <inkscape:grid
       type="xygrid"
       id="grid1942"
       spacingx="0.5"
       spacingy="0.5"
       empspacing="2" />
  </sodipodi:namedview>
  <linearGradient
     id="a"
     gradientUnits="userSpaceOnUse"
     x1="85.219681"
     x2="61.336319"
     y1="93.219681"
     y2="69.336319">
    <stop
       offset="0"
       id="stop2826" />
    <stop
       offset="1"
       stop-color="#393b38"
       id="stop2828" />
  </linearGradient>
  <linearGradient
     id="b"
     gradientUnits="userSpaceOnUse"
     x1="96"
     x2="88.000198"
     y1="104"
     y2="96.000198">
    <stop
       offset="0"
       stop-color="#888a85"
       id="stop2831" />
    <stop
       offset=".0072"
       stop-color="#8c8e89"
       id="stop2833" />
    <stop
       offset=".0673"
       stop-color="#abaca9"
       id="stop2835" />
    <stop
       offset=".1347"
       stop-color="#c5c6c4"
       id="stop2837" />
    <stop
       offset=".2115"
       stop-color="#dbdbda"
       id="stop2839" />
    <stop
       offset=".3012"
       stop-color="#ebebeb"
       id="stop2841" />
    <stop
       offset=".4122"
       stop-color="#f7f7f6"
       id="stop2843" />
    <stop
       offset=".5679"
       stop-color="#fdfdfd"
       id="stop2845" />
    <stop
       offset="1"
       stop-color="#fff"
       id="stop2847" />
  </linearGradient>
  <radialGradient
     id="c"
     cx="102"
     cy="112.3047"
     gradientTransform="matrix(0.9787234,0,0,0.9818182,1.361705,1.163636)"
     gradientUnits="userSpaceOnUse"
     r="139.55859">
    <stop
       offset="0"
       stop-color="#ececec"
       id="stop2854" />
    <stop
       offset=".2363"
       stop-color="#fafafa"
       id="stop2856" />
    <stop
       offset=".2722"
       stop-color="#fff"
       id="stop2858" />
    <stop
       offset=".5313"
       stop-color="#fafafa"
       id="stop2860" />
    <stop
       offset=".8449"
       stop-color="#ebecec"
       id="stop2862" />
    <stop
       offset="1"
       stop-color="#e1e2e3"
       id="stop2864" />
  </radialGradient>
  <radialGradient
     id="d"
     cx="102"
     cy="112.3047"
     gradientUnits="userSpaceOnUse"
     r="139.5585">
    <stop
       offset="0"
       stop-color="#ecf2f5"
       id="stop2879" />
    <stop
       offset=".2435"
       stop-color="#fafcfd"
       id="stop2881" />
    <stop
       offset=".2722"
       stop-color="#fff"
       id="stop2883" />
  </radialGradient>
  <filter
     id="e">
    <feGaussianBlur
       stdDeviation="1.0394514"
       id="feGaussianBlur2886" />
  </filter>
  <filter
     id="f">
    <feGaussianBlur
       stdDeviation=".50063244"
       id="feGaussianBlur2889" />
  </filter>
  <filter
     id="g">
    <feGaussianBlur
       stdDeviation=".4901192"
       id="feGaussianBlur2892" />
  </filter>
  <filter
     id="h">
    <feGaussianBlur
       stdDeviation=".90565481"
       id="feGaussianBlur2895" />
  </filter>
  <filter
     id="i"
     height="1.247155"
     width="1.247155"
     x="-0.123577"
     y="-0.123577">
    <feGaussianBlur
       stdDeviation="1.7720846"
       id="feGaussianBlur2898" />
  </filter>
  <g
     id="g80"
     transform="scale(0.125)">
    <path
       id="path2901"
       d="M 14,6 14.021484,64 14,122 H 14.042969 77.720703 114 V 85.927734 42.072266 6 H 77.720703 14.042969 Z"
       style="opacity:0.71506898;stroke-width:1.03868628;filter:url(#e)"
       inkscape:connector-curvature="0" />
    <path
       id="path2905"
       d="M 14,7 14.021484,64.5 14,122 H 14.042969 77.720703 114 V 85.927734 43.072266 7 H 77.720703 14.042969 Z"
       style="opacity:0.83561599;stroke-width:1.03868628;filter:url(#e)"
       inkscape:connector-curvature="0" />
    <path
       id="path2903"
       transform="matrix(1.0416667,0,0,1.0357143,-9.958333,-3.321534)"
       d="M 24.919999,10.931136 V 119.06907 l 58.676001,-1e-4 c 0.53,0 1.039,-0.211 1.414,-0.586 l 31.484,-31.765936 c 0.375,-0.375 0.586,-0.884 0.586,-1.414 V 10.931136 Z"
       inkscape:connector-curvature="0"
       style="opacity:0.89589;filter:url(#f)" />
    <path
       id="path2907"
       d="M 16,8 V 120 H 77.171875 112 V 85.171875 42.828125 8 H 77.171875 Z"
       style="fill:url(#radialGradient1965)"
       inkscape:connector-curvature="0" />
    <path
       id="path2909"
       d="m 24.679688,16 c -0.539277,0 -0.980469,0.44144 -0.980469,0.982422 L 23.849609,64 l -0.15039,47.01758 c 0,0.54098 0.441192,0.98242 0.980469,0.98242 h 0.298828 51.914062 26.128902 C 103.56173,112 104,111.55856 104,111.01758 V 84.787109 43.212891 16.982422 C 104,16.44144 103.56173,16 103.02148,16 H 76.892578 24.978516 Z"
       style="fill:url(#radialGradient1958)"
       inkscape:connector-curvature="0" />
    <g
       transform="matrix(3.7795275,0,0,3.7795275,2.2598425e-6,-994.51966)"
       style="fill:#2e3436;fill-opacity:0.58088199"
       id="g32">
      <path
         inkscape:connector-curvature="0"
         d="m 8.4666662,265.25 h 2.1166668 v 29.63333 H 8.4666662 Z"
         id="path24" />
      <path
         inkscape:connector-curvature="0"
         d="M 23.283333,265.25 H 25.4 v 29.63333 h -2.116667 z"
         id="path26" />
      <path
         inkscape:connector-curvature="0"
         d="M 4.2333328,269.48331 H 29.633333 v 2.11667 H 4.2333328 Z"
         id="path28"
         style="stroke-width:1.09544504" />
      <path
         inkscape:connector-curvature="0"
         d="M 4.2333328,288.53333 H 29.633333 V 290.65 H 4.2333328 Z"
         id="path30"
         style="stroke-width:1.09544504" />
    </g>
  </g>
</svg>
